assets/icons/traton/export.svg

<svg xmlns="http://www.w3.org/2000/svg" width="32" height="32" viewBox="0 0 32 32" fill="none">
<path d="M24.5898 13.4457L17 5.842L17 23.9813L15 23.9813L15 5.842L7.41016 13.4457L6 12.0311L16 2L26 12.0311L24.5898 13.4457ZM6 30L6 19.9689L8 19.9689L8 27.9938L24 27.9938L24 19.9689L26 19.9689L26 30L6 30Z" fill="#001D21" />
</svg>

<svg xmlns="http://www.w3.org/2000/svg" fill="none" viewBox="0 0 32 32"><path fill="#001d21" d="M24.6 13.4 17 5.8V24h-2V5.8l-7.6 7.6L6 12 16 2l10 10zM6 30V20h2v8h16v-8h2v10z"/></svg>
